external.svg

<?xml version="1.0" encoding="UTF-8" standalone="no"?>
<svg width="10px" height="10px" viewBox="0 0 10 10" version="1.1" xmlns="http://www.w3.org/2000/svg" xmlns:xlink="http://www.w3.org/1999/xlink" xmlns:sketch="http://www.bohemiancoding.com/sketch/ns">
    <!-- Generator: Sketch 3.4 (15575) - http://www.bohemiancoding.com/sketch -->
    <title>external</title>
    <desc>Created with Sketch.</desc>
    <defs></defs>
    <g id="Page-1" stroke="none" stroke-width="1" fill="none" fill-rule="evenodd" sketch:type="MSPage">
        <g id="external" sketch:type="MSLayerGroup" fill="#EA4C89">
            <g id="Group" sketch:type="MSShapeGroup">
                <path d="M9.38105634,0 L5.94355634,0 C5.60376761,0 5.32735915,0.276443662 5.32735915,0.616197183 C5.32735915,0.955950704 5.60376761,1.23239437 5.94355634,1.23239437 L7.8934507,1.23239437 L4.64080986,4.485 C4.5243662,4.60137324 4.46028169,4.75609155 4.46028169,4.92073944 C4.46028169,5.08538732 4.52433099,5.24007042 4.64073944,5.35633803 C4.75714789,5.47285211 4.91183099,5.53697183 5.07647887,5.53697183 C5.24105634,5.53697183 5.39580986,5.47288732 5.51225352,5.35644366 L8.76485915,2.10380282 L8.76485915,4.05369718 C8.76485915,4.3934507 9.04130282,4.66989437 9.38105634,4.66989437 C9.72080986,4.66989437 9.99725352,4.3934507 9.99725352,4.05369718 L9.99725352,0.616197183 C9.99725352,0.276443662 9.72080986,0 9.38105634,0 L9.38105634,0 Z" id="Shape"></path>
                <path d="M7.08228873,8.94091549 L1.05633803,8.94091549 L1.05633803,2.91496479 L5.58841549,2.91496479 L6.64475352,1.85862676 L0.528169014,1.85862676 C0.236478873,1.85862676 0,2.09510563 0,2.38679577 L0,9.46908451 C0,9.76077465 0.236478873,9.99725352 0.528169014,9.99725352 L7.61045775,9.99725352 C7.90214789,9.99725352 8.13862676,9.76077465 8.13862676,9.46908451 L8.13862676,3.3525 L7.08228873,4.40883803 L7.08228873,8.94091549 L7.08228873,8.94091549 Z" id="Shape"></path>
            </g>
        </g>
    </g>
</svg>

<svg width="10" height="10" viewBox="0 0 10 10" xmlns="http://www.w3.org/2000/svg"><title>external</title><g fill="#EA4C89" fill-rule="evenodd"><path d="M9.38 0H5.945c-.34 0-.617.276-.617.616 0 .34.277.616.617.616h1.95L4.64 4.485c-.116.116-.18.27-.18.436 0 .165.064.32.18.436.117.117.272.18.436.18.165 0 .32-.063.436-.18l3.253-3.252v1.95c0 .34.276.616.616.616.34 0 .617-.277.617-.616V.616C9.997.276 9.72 0 9.38 0z"/><path d="M7.082 8.94H1.056V2.916h4.532L6.645 1.86H.528c-.292 0-.528.235-.528.527V9.47c0 .29.236.527.528.527H7.61c.292 0 .53-.236.53-.528V3.35L7.08 4.41v4.53z"/></g></svg>
